X:190
T: Guai mo zi, Weizen mahlen)
N: C0314
O: China,Shandong, Zibuo
S: III, 390]
N: Zum Lied existiert auch ein ironischen Schauspiel.
N: Zwischen- und Nachspiel weggelassen.
R: Wuge, Huagu. Mo doufu qingjinq]
M: 2/4
L: 1/16
K: Eb
c2c2G4 | c2c2G4 | c4c2g2 | g4g2f2 |
e3fg2f2 | e2c2c2G2 |
c2c2c2G2
z2c2c2c2 | c4c2f2 | d2c2c2G2 |
c2c2G4 | c2c2G4 | c4c2g2 | g4g2f2 |
e3fg2f2 | e2c2c2G2 |
z4z4 | G2GFG4 |
z4z4 | G2GFG4 |
c2c2c2G2
z2c2c2c2 | c4c2f2 | d2c2c2G2 |
c2c2c2G2
z2c2c2c2 | c4c2f2 | d2c2c2G2

@@@ Tune index: 6191
